public/assets/landing_page_images/features/Chat Module.svg

<?xml version="1.0" encoding="UTF-8" standalone="no"?>
<!-- Created with Inkscape (http://www.inkscape.org/) -->

<svg
   width="72"
   height="72"
   viewBox="0 0 72 72"
   version="1.1"
   id="svg1"
   xmlns="http://www.w3.org/2000/svg"
   xmlns:svg="http://www.w3.org/2000/svg">
  <defs
     id="defs1" />
  <g
     id="layer1">
    <path
       style="fill:#860626;fill-opacity:1;fill-rule:evenodd;stroke:none"
       d="m 17.306805,71.98943 c -0.718242,0 -1.285275,-0.566762 -1.285275,-1.284662 V 58.651615 H 6.6087782 c -3.6290126,0 -6.6153872,-2.98495 -6.6153872,-6.612231 V 6.6228013 c 0,-3.627282 2.9863746,-6.6122316 6.6153872,-6.6122316 H 65.391221 c 3.666815,0 6.615388,2.9849496 6.615388,6.6122316 V 52.0016 c 0,3.665065 -2.986375,6.650015 -6.615388,6.650015 H 31.180218 l -12.96616,12.959973 c -0.226813,0.226705 -0.567033,0.377842 -0.907253,0.377842 z M 6.6087782,2.5798943 c -2.2681328,0 -4.0448369,1.775856 -4.0448369,4.080691 V 52.039384 c 0,2.26705 1.7767041,4.042907 4.0448369,4.042907 H 17.306805 c 0.718242,0 1.285275,0.566763 1.285275,1.284662 V 67.606465 L 29.743733,56.460133 c 0.264616,-0.226705 0.567034,-0.377842 0.907254,-0.377842 h 34.740234 c 2.268133,0 4.044837,-1.775857 4.044837,-4.042907 V 6.6228013 c 0,-2.267051 -1.776704,-4.042907 -4.044837,-4.042907 z"
       id="path1-4" />
    <path
       style="fill:#860626;fill-opacity:1;fill-rule:evenodd;stroke:none"
       d="m 15.983727,17.202371 c -0.680439,0 -1.247473,-0.566763 -1.247473,-1.246878 0,-0.680115 0.567034,-1.209094 1.247473,-1.209094 h 28.011441 c 0.68044,0 1.247473,0.528979 1.247473,1.209094 0,0.680115 -0.567033,1.246878 -1.247473,1.246878 z"
       id="path2-9" />
    <path
       style="fill:#860626;fill-opacity:1;fill-rule:evenodd;stroke:none"
       d="m 15.983727,29.935639 c -0.680439,0 -1.247473,-0.566763 -1.247473,-1.246878 0,-0.680115 0.567034,-1.209094 1.247473,-1.209094 h 40.750787 c 0.68044,0 1.247473,0.528979 1.247473,1.209094 0,0.680115 -0.567033,1.246878 -1.247473,1.246878 z"
       id="path3-6" />
    <path
       style="fill:#860626;fill-opacity:1;fill-rule:evenodd;stroke:none"
       d="m 15.983727,42.668907 c -0.680439,0 -1.247473,-0.528978 -1.247473,-1.209093 0,-0.680116 0.567034,-1.246878 1.247473,-1.246878 h 28.011441 c 0.68044,0 1.247473,0.566762 1.247473,1.246878 0,0.680115 -0.567033,1.209093 -1.247473,1.209093 z"
       id="path4-3" />
  </g>
</svg>

<svg width="72" height="72" viewBox="0 0 72 72" fill="none" xmlns="http://www.w3.org/2000/svg">
<g clip-path="url(#clip0_1735_1560)">
<path d="M17.3056 72C16.5928 72 16.0163 71.4236 16.0163 70.7109V58.648H6.62455C2.96637 58.648 0 55.6716 0 52.0245V6.62358C0 2.97642 2.97685 0 6.62455 0H65.3755C69.0336 0 72 2.97642 72 6.62358V52.014C72 55.6716 69.0231 58.6376 65.3755 58.6376H31.1941L18.2175 71.6122C17.9764 71.8533 17.6515 71.9895 17.3056 71.9895V72ZM6.62455 2.57817C4.34998 2.57817 2.56806 4.35983 2.56806 6.63406V52.0245C2.56806 54.2987 4.34998 56.0804 6.62455 56.0804H17.3056C18.0183 56.0804 18.5948 56.6568 18.5948 57.3694V67.6087L29.7476 56.4576C29.9886 56.2166 30.3136 56.0804 30.6595 56.0804H65.3755C67.65 56.0804 69.4319 54.2987 69.4319 52.0245V6.62358C69.4319 4.34935 67.65 2.56769 65.3755 2.56769H6.62455V2.57817Z" fill="#215679"/>
<path d="M15.97 17.19C15.29 17.19 14.74 16.64 14.74 15.96C14.74 15.28 15.29 14.73 15.97 14.73H44C44.68 14.73 45.23 15.28 45.23 15.96C45.23 16.64 44.68 17.19 44 17.19H15.97Z" fill="#215679"/>
<path d="M15.97 29.93C15.29 29.93 14.74 29.38 14.74 28.7C14.74 28.02 15.29 27.47 15.97 27.47H56.73C57.41 27.47 57.96 28.02 57.96 28.7C57.96 29.38 57.41 29.93 56.73 29.93H15.97Z" fill="#215679"/>
<path d="M15.97 42.67C15.29 42.67 14.74 42.12 14.74 41.44C14.74 40.76 15.29 40.21 15.97 40.21H44C44.68 40.21 45.23 40.76 45.23 41.44C45.23 42.12 44.68 42.67 44 42.67H15.97Z" fill="#215679"/>
</g>
<defs>
<clipPath id="clip0_1735_1560">
<rect width="72" height="72" fill="white"/>
</clipPath>
</defs>
</svg>
